X: 34
T: Drowsy Maggie
Z: Erik-Fiddler
S: https://thesession.org/tunes/27#setting52627
R: reel
M: 4/4
L: 1/8
K: Edor
|:E2Bd cABE|~(3E/D/E/E BG FADF|(3E/E/E/E Bd cABc|1 dfec dAFD:|2 dfec dAFA||
[d2D2] fe dcBd|c/B/A eA ceAc|defe dcBc|def^g aece|
defe dcBd|c/B/A eA fAeg|faec dcBa|^gbeg aecA||

